X: 23912
T: Loch Lomond
R: reel
M: 4/4
K: Gmajor
G2 GA B2 BG|A2 AG E2 D2|G2 GG G2 Bd|e4 d4|
e2 ed B2 Bd|cB AG E2 DE|G2 Bd e2 dB|A4 G4||

